X: 40552
T: Tommy Peoples'
R: mazurka
M: 3/4
K: Dmajor
AF A2 dc|BG B2 ed|cB c2 BA|FE F2 DF|
AF A2 dc|BG B2 ed|c2 cA Bc|d3 d:|
af d3 A|c3 B ef|ge c3 A|Bc A A ef|
af d3 A|c3 B ef|ge cA Bc|d3 d:|

